icons/svg/single-number-reach_14.svg

<?xml version="1.0" encoding="UTF-8"?>
<svg width="14px" height="14px" viewBox="0 0 14 14" version="1.1" xmlns="http://www.w3.org/2000/svg" xmlns:xlink="http://www.w3.org/1999/xlink">
    <!-- Generator: Sketch 56.3 (81716) - https://sketch.com -->
    <title>phone/single-number-reach_14</title>
    <desc>Created with Sketch.</desc>
    <g id="Icons-Webex" stroke="none" stroke-width="1" fill="none" fill-rule="evenodd">
        <g id="phone/single-number-reach_14" fill="#000000">
            <g id="single-number-reach_14">
                <path d="M13.8526433,6.64584228 C13.9466795,6.73970645 13.9997,6.86752148 13.9997,7.0003293 C13.9997,7.13313711 13.9466795,7.26095215 13.8526433,7.35481631 L11.9058924,9.28202743 C11.8078546,9.3778887 11.6798052,9.4268179 11.5527562,9.4268179 C11.4237064,9.4268179 11.295657,9.37689015 11.1976192,9.27903176 C11.002544,9.08231643 11.0045447,8.76677306 11.2006204,8.57305339 L12.2850386,7.49960679 L9.62901416,7.49960679 C9.35290767,7.49960679 9.12882123,7.27593047 9.12882123,7.0003293 C9.12882123,6.72472812 9.35290767,6.50105181 9.62901416,6.50105181 L12.2850386,6.50105181 L11.2006204,5.4276052 C11.0045447,5.23288698 11.002544,4.91734361 11.1976192,4.72162683 C11.3936948,4.52591005 11.7088164,4.52391294 11.9058924,4.71863116 L13.8526433,6.64584228 Z M3.50105052,9.02040602 C3.77715702,9.02040602 4.00124345,9.24408234 4.00124345,9.51968351 C4.00124345,9.79528469 3.77715702,10.018961 3.50105052,10.018961 L0.499892932,10.018961 C0.223786433,10.018961 -0.0003,9.79528469 -0.0003,9.51968351 C-0.0003,9.24408234 0.223786433,9.02040602 0.499892932,9.02040602 L3.50105052,9.02040602 Z M3.50105052,4.02713184 C3.77715702,4.02713184 4.00124345,4.25080816 4.00124345,4.52640933 C4.00124345,4.80201051 3.77715702,5.02568682 3.50105052,5.02568682 L0.499892932,5.02568682 C0.223786433,5.02568682 -0.0003,4.80201051 -0.0003,4.52640933 C-0.0003,4.25080816 0.223786433,4.02713184 0.499892932,4.02713184 L3.50105052,4.02713184 Z M8.80479625,12.1047426 C8.98686648,11.9230056 9.0418877,11.6523972 8.94685104,11.4147412 L8.55069824,10.4201804 C8.44965927,10.1665474 8.2425794,9.97083065 7.98347946,9.88395637 L7.38925026,9.68724104 C6.99209707,9.55443323 6.70798748,9.20094476 6.66196973,8.78454734 C6.52691764,7.54234494 6.5229161,6.23823213 6.65196587,5.20672484 C6.70198517,4.79631874 6.98809552,4.4468245 7.3792464,4.31701235 L7.98347946,4.1163028 C8.2425794,4.02942852 8.44965927,3.8347103 8.54969786,3.58007878 L8.94685104,2.58651657 C9.0418877,2.34786193 8.98686648,2.07725353 8.80479625,1.89551652 L7.78340229,1.15458873 C7.66335598,1.04175201 7.56631855,0.99881415 7.46928112,0.99881415 C7.45427534,0.99881415 7.44127032,0.999812705 7.42626453,1.00180981 C7.36324022,1.00979825 7.24519469,1.04175201 7.17016575,1.16756994 C6.32584008,2.58451946 5.84265216,4.71044301 5.84265216,7.00012958 C5.84165332,9.2888176 6.3248397,11.4147412 7.17016575,12.8326892 C7.20718003,12.8955982 7.34323251,12.9704898 7.52930428,12.9944551 C7.74838878,13.0224147 7.94446441,12.9644985 8.01349103,12.8955982 L8.80479625,12.1047426 Z M9.48105709,10.0507151 L9.87620951,11.0442773 C10.1193033,11.6533958 9.9762481,12.346393 9.51206906,12.810721 L8.72076384,13.6015766 C8.46366467,13.8582052 8.07551496,14 7.64935058,14 C7.56931971,14 7.48728807,13.9960058 7.40525643,13.9850217 C6.91606774,13.9241098 6.51691378,13.690448 6.31083429,13.3429508 C5.3764739,11.7752195 4.84126746,9.46256617 4.84226645,7.00012958 C4.84226645,4.49974791 5.36446927,2.24700788 6.31083429,0.658306901 C6.52491687,0.298827108 6.88605617,0.0621695777 7.30221669,0.0112432736 C7.71937759,-0.0426786953 8.13353734,0.0991161119 8.43265271,0.398682606 L9.45404668,1.1396104 C9.9762481,1.65386622 10.1193033,2.34686337 9.87620951,2.95598191 L9.48005671,3.94954412 C9.26897529,4.4777797 8.83880937,4.88319303 8.29960139,5.06293292 L7.69536833,5.26464103 C7.52630312,6.27418011 7.53130505,7.5253695 7.65735367,8.67570484 L8.29960139,8.93732625 C8.83880937,9.1180647 9.26897529,9.52347802 9.48005671,10.0497165 C9.48105709,10.0497165 9.48105709,10.0507151 9.48105709,10.0507151 Z" id="fill"></path>
            </g>
        </g>
    </g>
</svg>

<svg width="14" height="14" xmlns="http://www.w3.org/2000/svg"><path d="M13.853 6.646a.501.501 0 010 .709l-1.947 1.927a.506.506 0 01-.708-.003.498.498 0 01.003-.706L12.285 7.5H9.629a.5.5 0 110-.999h2.656l-1.084-1.073a.498.498 0 01-.003-.706.501.501 0 01.708-.003l1.947 1.927zM3.5 9.02a.5.5 0 110 .999H.5a.5.5 0 110-.999H3.5zm0-4.993a.5.5 0 110 .999H.5a.5.5 0 110-.999H3.5zm5.304 8.078a.638.638 0 00.142-.69l-.396-.995a.927.927 0 00-.568-.536l-.594-.197a1.077 1.077 0 01-.727-.902c-.135-1.243-.14-2.547-.01-3.578.05-.41.336-.76.727-.89l.604-.2a.92.92 0 00.567-.537l.397-.993a.64.64 0 00-.142-.691l-1.022-.741c-.12-.113-.217-.156-.314-.156a.343.343 0 00-.3.169C6.327 2.585 5.844 4.71 5.844 7c-.001 2.289.482 4.415 1.327 5.833.037.063.173.137.36.161.218.028.414-.03.483-.098l.792-.791zm.676-2.054l.395.993c.243.61.1 1.302-.364 1.767l-.791.79c-.257.257-.645.399-1.072.399a1.84 1.84 0 01-.244-.015c-.489-.06-.888-.295-1.094-.642C5.376 11.775 4.84 9.463 4.842 7c0-2.5.522-4.753 1.469-6.342.214-.36.575-.596.991-.647.417-.054.832.088 1.13.388l1.022.74c.522.515.665 1.208.422 1.817l-.396.994A1.923 1.923 0 018.3 5.063l-.605.202c-.169 1.01-.164 2.26-.038 3.41l.643.262a1.93 1.93 0 011.181 1.114z" fill="#000" fill-rule="evenodd"/></svg>
